flaticon/symbols/oil.svg

<svg xmlns="http://www.w3.org/2000/svg" width="32" height="32" viewBox="0 0 24 24">
    <path d="M 23.984375 11.402344 C 23.890625 10.832031 23.363281 10.398438 22.757812 10.398438 L 22.265625 10.398438 C 21.550781 5.800781 17.824219 2.214844 13.199219 1.679688 L 13.199219 1.242188 C 13.199219 0.636719 12.769531 0.109375 12.199219 0.015625 C 11.847656 -0.0390625 11.492188 0.0585938 11.222656 0.285156 C 10.953125 0.515625 10.800781 0.847656 10.800781 1.199219 L 10.800781 1.679688 C 6.175781 2.214844 2.449219 5.800781 1.734375 10.398438 L 1.242188 10.398438 C 0.636719 10.398438 0.109375 10.832031 0.015625 11.402344 C -0.0429688 11.753906 0.0585938 12.109375 0.285156 12.375 C 0.515625 12.644531 0.847656 12.800781 1.199219 12.800781 L 1.636719 12.800781 C 2.011719 17.757812 5.863281 21.757812 10.800781 22.328125 L 10.800781 22.757812 C 10.800781 23.363281 11.230469 23.890625 11.800781 23.984375 C 11.867188 23.996094 11.933594 24 12 24 C 12.28125 24 12.558594 23.902344 12.777344 23.714844 C 13.046875 23.484375 13.199219 23.152344 13.199219 22.800781 L 13.199219 22.328125 C 18.136719 21.757812 21.988281 17.757812 22.367188 12.800781 L 22.800781 12.800781 C 23.152344 12.800781 23.488281 12.644531 23.714844 12.375 C 23.941406 12.109375 24.042969 11.753906 23.984375 11.402344 Z M 13.199219 2.476562 C 17.386719 3 20.765625 6.242188 21.464844 10.398438 L 20.636719 10.398438 C 19.945312 6.660156 16.960938 3.804688 13.199219 3.292969 Z M 13.199219 4.09375 C 16.519531 4.589844 19.160156 7.105469 19.828125 10.398438 L 13.199219 10.398438 Z M 10.800781 2.476562 L 10.800781 3.292969 C 7.039062 3.804688 4.054688 6.660156 3.363281 10.398438 L 2.535156 10.398438 C 3.234375 6.242188 6.613281 3 10.800781 2.476562 Z M 10.800781 4.09375 L 10.800781 10.398438 L 4.171875 10.398438 C 4.839844 7.105469 7.480469 4.589844 10.800781 4.09375 Z M 10.800781 21.523438 C 6.304688 20.964844 2.808594 17.316406 2.433594 12.800781 L 3.257812 12.800781 C 3.628906 16.847656 6.777344 20.152344 10.800781 20.707031 Z M 10.800781 19.90625 C 7.21875 19.363281 4.414062 16.410156 4.050781 12.800781 L 10.800781 12.800781 Z M 13.199219 21.523438 L 13.199219 20.707031 C 17.222656 20.152344 20.371094 16.847656 20.742188 12.800781 L 21.566406 12.800781 C 21.191406 17.316406 17.695312 20.964844 13.199219 21.523438 Z M 13.199219 19.90625 L 13.199219 12.800781 L 19.949219 12.800781 C 19.585938 16.410156 16.78125 19.363281 13.199219 19.90625 Z M 23.105469 11.859375 C 23.027344 11.949219 22.917969 12 22.800781 12 L 13.109375 12 C 12.71875 12 12.398438 12.316406 12.398438 12.710938 L 12.398438 22.800781 C 12.398438 22.917969 12.347656 23.027344 12.257812 23.105469 C 12.167969 23.183594 12.050781 23.214844 11.929688 23.195312 C 11.746094 23.164062 11.601562 22.972656 11.601562 22.757812 L 11.601562 12.710938 C 11.601562 12.316406 11.28125 12 10.890625 12 L 1.199219 12 C 1.082031 12 0.972656 11.949219 0.894531 11.859375 C 0.816406 11.769531 0.785156 11.652344 0.804688 11.53125 C 0.835938 11.34375 1.027344 11.199219 1.242188 11.199219 L 10.890625 11.199219 C 11.28125 11.199219 11.601562 10.882812 11.601562 10.492188 L 11.601562 1.199219 C 11.601562 1.082031 11.652344 0.972656 11.742188 0.894531 C 11.832031 0.816406 11.949219 0.785156 12.070312 0.804688 C 12.253906 0.835938 12.398438 1.027344 12.398438 1.242188 L 12.398438 10.492188 C 12.398438 10.882812 12.71875 11.199219 13.109375 11.199219 L 22.757812 11.199219 C 22.972656 11.199219 23.164062 11.34375 23.195312 11.53125 C 23.214844 11.652344 23.183594 11.769531 23.105469 11.859375 Z M 23.105469 11.859375"/>
</svg>

<svg xmlns="http://www.w3.org/2000/svg" width="32" height="32" viewBox="0 0 24 24">
    <path d="M23.984 11.402c-.093-.57-.62-1.004-1.226-1.004h-.492a10.41 10.41 0 0 0-9.067-8.718v-.438c0-.605-.43-1.133-1-1.226A1.199 1.199 0 0 0 10.801 1.2v.48a10.41 10.41 0 0 0-9.067 8.718h-.492c-.605 0-1.133.434-1.226 1.004A1.203 1.203 0 0 0 1.2 12.8h.437a10.39 10.39 0 0 0 9.164 9.528v.43c0 .605.43 1.133 1 1.226a1.194 1.194 0 0 0 1.398-1.184v-.472c4.938-.57 8.79-4.57 9.168-9.527h.434c.351 0 .687-.156.914-.426.226-.266.328-.621.27-.973zM13.2 2.477a9.62 9.62 0 0 1 8.266 7.921h-.828a8.754 8.754 0 0 0-7.438-7.105zm0 1.617a7.96 7.96 0 0 1 6.63 6.304h-6.63zm-2.398-1.617v.816a8.754 8.754 0 0 0-7.438 7.105h-.828a9.62 9.62 0 0 1 8.266-7.921zm0 1.617v6.304H4.17a7.96 7.96 0 0 1 6.63-6.304zm0 17.43A9.595 9.595 0 0 1 2.434 12.8h.824c.37 4.047 3.52 7.351 7.543 7.906zm0-1.618c-3.582-.543-6.387-3.496-6.75-7.105h6.75zm2.398 1.617v-.816c4.024-.555 7.172-3.86 7.543-7.906h.824a9.595 9.595 0 0 1-8.367 8.722zm0-1.617v-7.105h6.75c-.363 3.61-3.168 6.562-6.75 7.105zm9.906-8.047a.402.402 0 0 1-.304.141h-9.692c-.39 0-.71.316-.71.71V22.8a.402.402 0 0 1-.47.395c-.183-.03-.327-.222-.327-.437V12.71c0-.395-.32-.711-.711-.711H1.199a.402.402 0 0 1-.394-.469c.03-.187.222-.332.437-.332h9.649a.71.71 0 0 0 .71-.707V1.2a.402.402 0 0 1 .47-.394c.183.03.327.222.327.437v9.25c0 .39.32.707.711.707h9.649c.215 0 .406.145.437.332a.396.396 0 0 1-.09.328zm0 0"/>
</svg>
